Hatter-kde/actions/24/prevuntranslated.svg

<svg xmlns="http://www.w3.org/2000/svg" viewBox="0 0 24 24">
  <defs id="defs3051">
    <style type="text/css" id="current-color-scheme">
      .ColorScheme-Text {
        color:#363636;
      }
      </style>
  </defs><g transform="translate(1,1)">
 <path 
     style="fill:currentColor;fill-opacity:1;stroke:none" 
     d="M 16.292969 4 L 13 7.2929688 L 12.792969 7.5 L 13 7.7070312 L 16.292969 11 L 17 10.292969 L 14.707031 8 L 19 8 L 19 7 L 14.707031 7 L 17 4.7070312 L 16.292969 4 z M 5 15 L 5 16 L 5 17 L 16 17 L 16 16 L 16 15 L 15 15 L 15 16 L 6 16 L 6 15 L 5 15 z "
	 class="ColorScheme-Text"
     />
</g></svg>

<?xml version="1.0" encoding="UTF-8"?>
<svg viewBox="0 0 24 24" xmlns="http://www.w3.org/2000/svg">
 <defs id="defs3051">
  <style id="current-color-scheme" type="text/css">.ColorScheme-Text {
        color:#363636;
      }</style>
 </defs>
 <g transform="translate(1,1)">
  <path class="ColorScheme-Text" d="m16.293 4-3.5 3.5 3.5 3.5 0.70703-0.70703-2.293-2.293h4.293v-1h-4.293l2.293-2.293-0.70703-0.70703zm-11.293 11v1 1h11v-1-1h-1v1h-9v-1h-1z" fill="currentColor"/>
 </g>
</svg>
